svgs/light/location-smile.svg

<svg xmlns="http://www.w3.org/2000/svg" viewBox="0 0 384 512"><!--! Font Awesome Pro 6.4.2 by @fontawesome - https://fontawesome.com License - https://fontawesome.com/license (Commercial License) Copyright 2023 Fonticons, Inc. --><path d="M352 192c0-88.4-71.6-160-160-160S32 103.6 32 192c0 15.6 5.4 37 16.6 63.4c10.9 25.9 26.2 54 43.6 82.1c34.1 55.3 74.4 108.2 99.9 140c25.4-31.8 65.8-84.7 99.9-140c17.3-28.1 32.7-56.3 43.6-82.1C346.6 229 352 207.6 352 192zm32 0c0 87.4-117 243-168.3 307.2c-12.3 15.3-35.1 15.3-47.4 0C117 435 0 279.4 0 192C0 86 86 0 192 0S384 86 384 192zM128 136a24 24 0 1 1 0 48 24 24 0 1 1 0-48zm104 24a24 24 0 1 1 48 0 24 24 0 1 1 -48 0zM125.3 247.1C132.1 257.3 156 280 192 280s59.9-22.7 66.7-32.9c4.9-7.4 14.8-9.3 22.2-4.4s9.3 14.8 4.4 22.2c-11 16.5-43.9 47.1-93.3 47.1s-82.3-30.6-93.3-47.1c-4.9-7.4-2.9-17.3 4.4-22.2s17.3-2.9 22.2 4.4z"/></svg>

<svg xmlns="http://www.w3.org/2000/svg" viewBox="0 0 384 512"><!--! Font Awesome Pro 6.1.1 by @fontawesome - https://fontawesome.com License - https://fontawesome.com/license (Commercial License) Copyright 2022 Fonticons, Inc. --><path d="M104 160C104 146.7 114.7 136 128 136C141.3 136 152 146.7 152 160C152 173.3 141.3 184 128 184C114.7 184 104 173.3 104 160zM280 160C280 173.3 269.3 184 256 184C242.7 184 232 173.3 232 160C232 146.7 242.7 136 256 136C269.3 136 280 146.7 280 160zM192 280C227.1 280 251.9 257.3 258.7 247.1C263.6 239.8 273.5 237.8 280.9 242.7C288.2 247.6 290.2 257.5 285.3 264.9C274.3 281.4 241.4 312 192 312C142.6 312 109.7 281.4 98.69 264.9C93.79 257.5 95.77 247.6 103.1 242.7C110.5 237.8 120.4 239.8 125.3 247.1C132.1 257.3 156 280 191.1 280H192zM384 192C384 279.4 267 435 215.7 499.2C203.4 514.5 180.6 514.5 168.3 499.2C116.1 435 0 279.4 0 192C0 85.96 85.96 0 192 0C298 0 384 85.96 384 192H384zM192 32C103.6 32 32 103.6 32 192C32 207.6 37.43 229 48.56 255.4C59.47 281.3 74.8 309.4 92.14 337.5C126.2 392.8 166.6 445.7 192 477.6C217.4 445.7 257.8 392.8 291.9 337.5C309.2 309.4 324.5 281.3 335.4 255.4C346.6 229 352 207.6 352 192C352 103.6 280.4 32 192 32z"/></svg>
